src/icons/services/e-commerce.svg

<svg width="52" height="52" viewBox="0 0 52 52" fill="none" xmlns="http://www.w3.org/2000/svg">
<path d="M30.1439 38.8374C26.8939 38.8374 24.2939 41.4374 24.2939 44.6874C24.2939 47.9374 26.8939 50.5374 30.1439 50.5374C33.3939 50.5374 35.9939 47.9374 35.9939 44.6874C35.9939 41.5187 33.3127 38.8374 30.1439 38.8374ZM30.1439 46.9624C28.9252 46.9624 27.9502 45.9874 27.9502 44.7687C27.9502 43.5499 28.9252 42.5749 30.1439 42.5749C31.3627 42.5749 32.3377 43.5499 32.3377 44.7687C32.3377 45.9062 31.2814 46.9624 30.1439 46.9624Z" fill="#9D74D3"/>
<path d="M14.7064 38.8374C11.4564 38.8374 8.85645 41.4374 8.85645 44.6874C8.85645 47.9374 11.4564 50.5374 14.7064 50.5374C17.9564 50.5374 20.5564 47.9374 20.5564 44.6874C20.5564 41.5187 17.8752 38.8374 14.7064 38.8374ZM14.7064 46.9624C13.4877 46.9624 12.5127 45.9874 12.5127 44.7687C12.5127 43.5499 13.4877 42.5749 14.7064 42.5749C15.9252 42.5749 16.9002 43.5499 16.9002 44.7687C16.9002 45.9062 15.9252 46.9624 14.7064 46.9624Z" fill="#9D74D3"/>
<path d="M47.2877 1.4624H42.9002C40.9502 1.4624 39.244 2.9249 39.0002 4.8749L37.7002 14.2187H34.2877V8.2874C34.2065 6.8249 33.069 5.6874 31.6877 5.6874H25.6752C25.4315 4.46865 24.3752 3.5749 23.1565 3.5749H16.0877C14.7065 3.5749 13.4877 4.79365 13.4877 6.3374V7.88115H7.55646C6.17521 7.88115 4.95646 9.01865 4.95646 10.3187V14.2999C4.30646 14.4624 3.81896 14.7874 3.41271 15.2749C2.92521 15.9249 2.68146 16.8187 2.92521 17.6312C2.92521 17.7124 2.92521 17.7124 2.92521 17.7937L7.96271 32.9874C8.28771 34.1249 9.34396 34.9374 10.5627 34.9374H32.9877C35.994 34.9374 38.594 32.6624 39.0002 29.6562L42.4127 5.3624C42.4127 5.1999 42.5752 5.11865 42.7377 5.11865H47.1252C48.1002 5.11865 48.994 4.30615 48.994 3.2499C48.994 2.19365 48.2627 1.4624 47.2877 1.4624ZM30.5502 14.2187H25.6752V9.34365H30.5502V14.2187ZM17.2252 7.23115H22.1002V8.2874V14.2187H17.2252V10.3999V7.23115ZM8.69396 11.4562H13.569V14.2187H8.69396V11.4562ZM35.5065 29.0874C35.344 30.3062 34.2877 31.1999 33.069 31.1999H11.294L6.90646 17.8749H37.1315L35.5065 29.0874Z" fill="#9D74D3"/>
</svg>

<svg xmlns="http://www.w3.org/2000/svg" width="52" height="52" fill="#9d74d3"  ><path d="M30.144 38.837c-3.25 0-5.85 2.6-5.85 5.85s2.6 5.85 5.85 5.85 5.85-2.6 5.85-5.85c0-3.169-2.681-5.85-5.85-5.85zm0 8.125c-1.219 0-2.194-.975-2.194-2.194s.975-2.194 2.194-2.194 2.194.975 2.194 2.194c0 1.137-1.056 2.194-2.194 2.194zm-15.438-8.125c-3.25 0-5.85 2.6-5.85 5.85s2.6 5.85 5.85 5.85 5.85-2.6 5.85-5.85c0-3.169-2.681-5.85-5.85-5.85zm0 8.125c-1.219 0-2.194-.975-2.194-2.194s.975-2.194 2.194-2.194 2.194.975 2.194 2.194c0 1.137-.975 2.194-2.194 2.194zm32.582-45.5H42.9c-1.95 0-3.656 1.463-3.9 3.413l-1.3 9.344h-3.413V8.287c-.081-1.462-1.219-2.6-2.6-2.6h-6.012c-.244-1.219-1.3-2.113-2.519-2.113h-7.069c-1.381 0-2.6 1.219-2.6 2.762V7.88H7.556c-1.381 0-2.6 1.137-2.6 2.438V14.3a2.82 2.82 0 0 0-1.544.975c-.488.65-.731 1.544-.488 2.356v.163l5.038 15.194c.325 1.137 1.381 1.95 2.6 1.95h22.425c3.006 0 5.606-2.275 6.013-5.281l3.413-24.294c0-.162.163-.244.325-.244h4.388c.975 0 1.869-.812 1.869-1.869s-.731-1.787-1.706-1.787zM30.55 14.219h-4.875V9.344h4.875v4.875zM17.225 7.231H22.1v1.056 5.931h-4.875V10.4 7.231zm-8.531 4.225h4.875v2.762H8.694v-2.762zm26.813 17.631c-.163 1.219-1.219 2.113-2.437 2.113H11.294L6.906 17.875h30.225l-1.625 11.212z"/></svg>
